packages/ui/public/icons/bank-card.svg

<svg width="22" height="17" viewBox="0 0 22 17" fill="none" xmlns="http://www.w3.org/2000/svg">
<path d="M21 6.5H1M10 10.5H5M1 4.7L1 12.3C1 13.4201 1 13.9802 1.21799 14.408C1.40973 14.7843 1.71569 15.0903 2.09202 15.282C2.51984 15.5 3.07989 15.5 4.2 15.5L17.8 15.5C18.9201 15.5 19.4802 15.5 19.908 15.282C20.2843 15.0903 20.5903 14.7843 20.782 14.408C21 13.9802 21 13.4201 21 12.3V4.7C21 3.5799 21 3.01984 20.782 2.59202C20.5903 2.2157 20.2843 1.90974 19.908 1.71799C19.4802 1.5 18.9201 1.5 17.8 1.5L4.2 1.5C3.0799 1.5 2.51984 1.5 2.09202 1.71799C1.7157 1.90973 1.40973 2.21569 1.21799 2.59202C1 3.01984 1 3.57989 1 4.7Z" stroke="white" stroke-width="2" stroke-linecap="round" stroke-linejoin="round"/>
</svg>

<svg width="22" height="17" fill="none" xmlns="http://www.w3.org/2000/svg"><path d="M21 6.5H1m9 4H5M1 4.7v7.6c0 1.12 0 1.68.218 2.108a2 2 0 0 0 .874.874c.428.218.988.218 2.108.218h13.6c1.12 0 1.68 0 2.108-.218a2 2 0 0 0 .874-.874C21 13.98 21 13.42 21 12.3V4.7c0-1.12 0-1.68-.218-2.108a2 2 0 0 0-.874-.874C19.48 1.5 18.92 1.5 17.8 1.5H4.2c-1.12 0-1.68 0-2.108.218a2 2 0 0 0-.874.874C1 3.02 1 3.58 1 4.7Z" stroke="#fff" stroke-width="2" stroke-linecap="round" stroke-linejoin="round"/></svg>
